; generated by Slic3r 1.1.7 on 2015-01-17 at 16:11:21

; perimeters extrusion width = 0.50mm
; infill extrusion width = 0.52mm
; solid infill extrusion width = 0.52mm
; top infill extrusion width = 0.52mm

G21 ; set units to millimeters
M107
M104 S200 ; set temperature
G28 ; home all axes
G1 Z5 F5000 ; lift nozzle

M109 S200 ; wait for temperature to be reached
G90 ; use absolute coordinates
G92 E0
M82 ; use absolute distances for extrusion
G1 F1800.000 E-1.00000
G92 E0
G1 Z0.350 F7800.000
G1 X0.000 Y92.168 F7800.000
G1 E1.00000 F1800.000
G1 X211.229 Y92.168 E7.87237 F1080.000
G1 X213.493 Y92.565 E7.94717
G1 X215.488 Y93.709 E8.02197 F1080.000
G1 X216.974 Y95.462 E8.09677
G1 X217.775 Y97.617 E8.17157
G1 X217.886 Y98.825 E8.21102
G1 X217.886 Y104.925 E8.40949
G1 X217.489 Y107.190 E8.48429
G1 X216.345 Y109.184 E8.55909
G1 X214.591 Y110.670 E8.63389
G1 X212.436 Y111.472 E8.70869
G1 X211.229 Y111.582 E8.74814
G1 X-13.918 Y111.582 E16.07335
G1 X-16.183 Y111.185 E16.14815
G1 X-18.177 Y110.041 E16.22295
G1 X-19.664 Y108.288 E16.29775
G1 X-20.465 Y106.133 E16.37255
G1 X-20.576 Y104.925 E16.41200
G1 X-20.576 Y98.825 E16.61047
G1 X-20.179 Y96.560 E16.68527
G1 X-19.035 Y94.566 E16.76007
G1 X-17.281 Y93.080 E16.83487
G1 X-15.126 Y92.278 E16.90967
G1 X-13.919 Y92.168 E16.94913
G1 X-0.075 Y92.168 E17.39953
G1 F1800.000 E16.39953
G92 E0
G1 X-12.254 Y103.261 F7800.000
G1 E1.00000 F1800.000
G1 X-12.254 Y100.489 E1.09018 F540.000
G1 X209.564 Y100.489 E8.30710
G1 X209.564 Y103.261 E8.39728
G1 X-12.179 Y103.261 E15.61176
G1 X-12.911 Y103.918 F7800.000
G1 X-12.912 Y99.832 E15.74469 F540.000
G1 X210.221 Y99.832 E23.00437
G1 X210.221 Y103.918 E23.13730
G1 X-12.836 Y103.918 E30.39454
G1 X-13.568 Y104.575 F7800.000
G1 X-13.569 Y99.175 E30.57023 F378.000
G1 X210.879 Y99.175 E37.87267
G1 X210.879 Y104.575 E38.04836
G1 X-13.493 Y104.575 E45.34835
G1 X-13.319 Y104.142 F7800.000
G1 X-11.798 Y102.764 F7800.000
G1 X-11.758 Y102.804 E45.35019 F1080.000
G1 X-10.826 Y102.804 E45.38050
G1 X-11.798 Y101.833 E45.42522
G1 X-11.754 Y100.946 E45.45412
G1 X-9.895 Y102.804 E45.53965
G1 X-8.963 Y102.804 E45.56996
G1 X-10.822 Y100.946 E45.65550
G1 X-9.890 Y100.946 E45.68581
G1 X-8.031 Y102.804 E45.77135
G1 X-7.099 Y102.804 E45.80166
G1 X-8.958 Y100.946 E45.88719
G1 X-8.027 Y100.946 E45.91751
G1 X-6.168 Y102.804 E46.00304
G1 X-5.236 Y102.804 E46.03336
G1 X-7.095 Y100.946 E46.11889
G1 X-6.163 Y100.946 E46.14920
G1 X-4.304 Y102.804 E46.23474
G1 X-3.372 Y102.804 E46.26505
G1 X-5.231 Y100.946 E46.35058
G1 X-4.300 Y100.946 E46.38090
G1 X-2.441 Y102.804 E46.46643
G1 X-1.509 Y102.804 E46.49675
G1 X-3.368 Y100.946 E46.58228
G1 X-2.436 Y100.946 E46.61259
G1 X-0.577 Y102.804 E46.69813
G1 X0.355 Y102.804 E46.72844
G1 X-1.504 Y100.946 E46.81398
G1 X-0.573 Y100.946 E46.84429
G1 X1.286 Y102.804 E46.92982
G1 X2.218 Y102.804 E46.96014
G1 X0.359 Y100.946 E47.04567
G1 X1.291 Y100.946 E47.07599
G1 X3.150 Y102.804 E47.16152
G1 X4.081 Y102.804 E47.19183
G1 X2.223 Y100.946 E47.27737
G1 X3.154 Y100.946 E47.30768
G1 X5.013 Y102.804 E47.39321
G1 X5.945 Y102.804 E47.42353
G1 X4.086 Y100.946 E47.50906
G1 X5.018 Y100.946 E47.53938
G1 X6.877 Y102.804 E47.62491
G1 X7.808 Y102.804 E47.65522
G1 X5.949 Y100.946 E47.74076
G1 X6.881 Y100.946 E47.77107
G1 X8.740 Y102.804 E47.85661
G1 X9.672 Y102.804 E47.88692
G1 X7.813 Y100.946 E47.97245
G1 X8.745 Y100.946 E48.00277
G1 X10.604 Y102.804 E48.08830
G1 X11.535 Y102.804 E48.11862
G1 X9.676 Y100.946 E48.20415
G1 X10.608 Y100.946 E48.23446
G1 X12.467 Y102.804 E48.32000
G1 X13.399 Y102.804 E48.35031
G1 X11.540 Y100.946 E48.43584
G1 X12.472 Y100.946 E48.46616
G1 X14.331 Y102.804 E48.55169
G1 X15.262 Y102.804 E48.58201
G1 X13.403 Y100.946 E48.66754
G1 X14.335 Y100.946 E48.69785
G1 X16.194 Y102.804 E48.78339
G1 X17.126 Y102.804 E48.81370
G1 X15.267 Y100.946 E48.89924
G1 X16.199 Y100.946 E48.92955
G1 X18.058 Y102.804 E49.01508
G1 X18.989 Y102.804 E49.04540
G1 X17.130 Y100.946 E49.13093
G1 X18.062 Y100.946 E49.16125
G1 X19.921 Y102.804 E49.24678
G1 X20.853 Y102.804 E49.27709
G1 X18.994 Y100.946 E49.36263
G1 X19.926 Y100.946 E49.39294
G1 X21.784 Y102.804 E49.47848
G1 X22.716 Y102.804 E49.50879
G1 X20.857 Y100.946 E49.59432
G1 X21.789 Y100.946 E49.62464
G1 X23.648 Y102.804 E49.71017
G1 X24.580 Y102.804 E49.74048
G1 X22.721 Y100.946 E49.82602
G1 X23.652 Y100.946 E49.85633
G1 X25.511 Y102.804 E49.94187
G1 X26.443 Y102.804 E49.97218
G1 X24.584 Y100.946 E50.05771
G1 X25.516 Y100.946 E50.08803
G1 X27.375 Y102.804 E50.17356
G1 X28.307 Y102.804 E50.20388
G1 X26.448 Y100.946 E50.28941
G1 X27.379 Y100.946 E50.31972
G1 X29.238 Y102.804 E50.40526
G1 X30.170 Y102.804 E50.43557
G1 X28.311 Y100.946 E50.52111
G1 X29.243 Y100.946 E50.55142
G1 X31.102 Y102.804 E50.63695
G1 X32.034 Y102.804 E50.66727
G1 X30.175 Y100.946 E50.75280
G1 X31.106 Y100.946 E50.78312
G1 X32.965 Y102.804 E50.86865
G1 X33.897 Y102.804 E50.89896
G1 X32.038 Y100.946 E50.98450
G1 X32.970 Y100.946 E51.01481
G1 X34.829 Y102.804 E51.10034
G1 X35.761 Y102.804 E51.13066
G1 X33.902 Y100.946 E51.21619
G1 X34.833 Y100.946 E51.24651
G1 X36.692 Y102.804 E51.33204
G1 X37.624 Y102.804 E51.36235
G1 X35.765 Y100.946 E51.44789
G1 X36.697 Y100.946 E51.47820
G1 X38.556 Y102.804 E51.56374
G1 X39.487 Y102.804 E51.59405
G1 X37.629 Y100.946 E51.67958
G1 X38.560 Y100.946 E51.70990
G1 X40.419 Y102.804 E51.79543
G1 X41.351 Y102.804 E51.82575
G1 X39.492 Y100.946 E51.91128
G1 X40.424 Y100.946 E51.94159
G1 X42.283 Y102.804 E52.02713
G1 X43.214 Y102.804 E52.05744
G1 X41.355 Y100.946 E52.14297
G1 X42.287 Y100.946 E52.17329
G1 X44.146 Y102.804 E52.25882
G1 X45.078 Y102.804 E52.28914
G1 X43.219 Y100.946 E52.37467
G1 X44.151 Y100.946 E52.40498
G1 X46.010 Y102.804 E52.49052
G1 X46.941 Y102.804 E52.52083
G1 X45.082 Y100.946 E52.60637
G1 X46.014 Y100.946 E52.63668
G1 X47.873 Y102.804 E52.72221
G1 X48.805 Y102.804 E52.75253
G1 X46.946 Y100.946 E52.83806
G1 X47.878 Y100.946 E52.86838
G1 X49.737 Y102.804 E52.95391
G1 X50.668 Y102.804 E52.98422
G1 X48.809 Y100.946 E53.06976
G1 X49.741 Y100.946 E53.10007
G1 X51.600 Y102.804 E53.18560
G1 X52.532 Y102.804 E53.21592
G1 X50.673 Y100.946 E53.30145
G1 X51.605 Y100.946 E53.33177
G1 X53.464 Y102.804 E53.41730
G1 X54.395 Y102.804 E53.44761
G1 X52.536 Y100.946 E53.53315
G1 X53.468 Y100.946 E53.56346
G1 X55.327 Y102.804 E53.64900
G1 X56.259 Y102.804 E53.67931
G1 X54.400 Y100.946 E53.76484
G1 X55.332 Y100.946 E53.79516
G1 X57.190 Y102.804 E53.88069
G1 X58.122 Y102.804 E53.91101
G1 X56.263 Y100.946 E53.99654
G1 X57.195 Y100.946 E54.02685
G1 X59.054 Y102.804 E54.11239
G1 X59.986 Y102.804 E54.14270
G1 X58.127 Y100.946 E54.22823
G1 X59.058 Y100.946 E54.25855
G1 X60.917 Y102.804 E54.34408
G1 X61.849 Y102.804 E54.37440
G1 X59.990 Y100.946 E54.45993
G1 X60.922 Y100.946 E54.49024
G1 X62.781 Y102.804 E54.57578
G1 X63.713 Y102.804 E54.60609
G1 X61.854 Y100.946 E54.69163
G1 X62.785 Y100.946 E54.72194
G1 X64.644 Y102.804 E54.80747
G1 X65.576 Y102.804 E54.83779
G1 X63.717 Y100.946 E54.92332
G1 X64.649 Y100.946 E54.95364
G1 X66.508 Y102.804 E55.03917
G1 X67.440 Y102.804 E55.06948
G1 X65.581 Y100.946 E55.15502
G1 X66.512 Y100.946 E55.18533
G1 X68.371 Y102.804 E55.27087
G1 X69.303 Y102.804 E55.30118
G1 X67.444 Y100.946 E55.38671
G1 X68.376 Y100.946 E55.41703
G1 X70.235 Y102.804 E55.50256
G1 X71.167 Y102.804 E55.53287
G1 X69.308 Y100.946 E55.61841
G1 X70.239 Y100.946 E55.64872
G1 X72.098 Y102.804 E55.73426
G1 X73.030 Y102.804 E55.76457
G1 X71.171 Y100.946 E55.85010
G1 X72.103 Y100.946 E55.88042
G1 X73.962 Y102.804 E55.96595
G1 X74.893 Y102.804 E55.99627
G1 X73.035 Y100.946 E56.08180
G1 X73.966 Y100.946 E56.11211
G1 X75.825 Y102.804 E56.19765
G1 X76.757 Y102.804 E56.22796
G1 X74.898 Y100.946 E56.31350
G1 X75.830 Y100.946 E56.34381
G1 X77.689 Y102.804 E56.42934
G1 X78.620 Y102.804 E56.45966
G1 X76.761 Y100.946 E56.54519
G1 X77.693 Y100.946 E56.57551
G1 X79.552 Y102.804 E56.66104
G1 X80.484 Y102.804 E56.69135
G1 X78.625 Y100.946 E56.77689
G1 X79.557 Y100.946 E56.80720
G1 X81.416 Y102.804 E56.89273
G1 X82.347 Y102.804 E56.92305
G1 X80.488 Y100.946 E57.00858
G1 X81.420 Y100.946 E57.03890
G1 X83.279 Y102.804 E57.12443
G1 X84.211 Y102.804 E57.15474
G1 X82.352 Y100.946 E57.24028
G1 X83.284 Y100.946 E57.27059
G1 X85.143 Y102.804 E57.35613
G1 X86.074 Y102.804 E57.38644
G1 X84.215 Y100.946 E57.47197
G1 X85.147 Y100.946 E57.50229
G1 X87.006 Y102.804 E57.58782
G1 X87.938 Y102.804 E57.61814
G1 X86.079 Y100.946 E57.70367
G1 X87.011 Y100.946 E57.73398
G1 X88.869 Y102.804 E57.81952
G1 X89.801 Y102.804 E57.84983
G1 X87.942 Y100.946 E57.93536
G1 X88.874 Y100.946 E57.96568
G1 X90.733 Y102.804 E58.05121
G1 X91.665 Y102.804 E58.08153
G1 X89.806 Y100.946 E58.16706
G1 X90.737 Y100.946 E58.19737
G1 X92.596 Y102.804 E58.28291
G1 X93.528 Y102.804 E58.31322
G1 X91.669 Y100.946 E58.39876
G1 X92.601 Y100.946 E58.42907
G1 X94.460 Y102.804 E58.51460
G1 X95.392 Y102.804 E58.54492
G1 X93.533 Y100.946 E58.63045
G1 X94.464 Y100.946 E58.66077
G1 X96.323 Y102.804 E58.74630
G1 X97.255 Y102.804 E58.77661
G1 X95.396 Y100.946 E58.86215
G1 X96.328 Y100.946 E58.89246
G1 X98.187 Y102.804 E58.97799
G1 X99.119 Y102.804 E59.00831
G1 X97.260 Y100.946 E59.09384
G1 X98.191 Y100.946 E59.12416
G1 X100.050 Y102.804 E59.20969
G1 X100.982 Y102.804 E59.24000
G1 X99.123 Y100.946 E59.32554
G1 X100.055 Y100.946 E59.35585
G1 X101.914 Y102.804 E59.44139
G1 X102.846 Y102.804 E59.47170
G1 X100.987 Y100.946 E59.55723
G1 X101.918 Y100.946 E59.58755
G1 X103.777 Y102.804 E59.67308
G1 X104.709 Y102.804 E59.70340
G1 X102.850 Y100.946 E59.78893
G1 X103.782 Y100.946 E59.81924
G1 X105.641 Y102.804 E59.90478
G1 X106.572 Y102.804 E59.93509
G1 X104.714 Y100.946 E60.02062
G1 X105.645 Y100.946 E60.05094
G1 X107.504 Y102.804 E60.13647
G1 X108.436 Y102.804 E60.16679
G1 X106.577 Y100.946 E60.25232
G1 X107.509 Y100.946 E60.28263
G1 X109.368 Y102.804 E60.36817
G1 X110.299 Y102.804 E60.39848
G1 X108.440 Y100.946 E60.48402
G1 X109.372 Y100.946 E60.51433
G1 X111.231 Y102.804 E60.59986
G1 X112.163 Y102.804 E60.63018
G1 X110.304 Y100.946 E60.71571
G1 X111.236 Y100.946 E60.74603
G1 X113.095 Y102.804 E60.83156
G1 X114.026 Y102.804 E60.86187
G1 X112.167 Y100.946 E60.94741
G1 X113.099 Y100.946 E60.97772
G1 X114.958 Y102.804 E61.06325
G1 X115.890 Y102.804 E61.09357
G1 X114.031 Y100.946 E61.17910
G1 X114.963 Y100.946 E61.20942
G1 X116.822 Y102.804 E61.29495
G1 X117.753 Y102.804 E61.32526
G1 X115.894 Y100.946 E61.41080
G1 X116.826 Y100.946 E61.44111
G1 X118.685 Y102.804 E61.52665
G1 X119.617 Y102.804 E61.55696
G1 X117.758 Y100.946 E61.64249
G1 X118.690 Y100.946 E61.67281
G1 X120.549 Y102.804 E61.75834
G1 X121.480 Y102.804 E61.78866
G1 X119.621 Y100.946 E61.87419
G1 X120.553 Y100.946 E61.90450
G1 X122.412 Y102.804 E61.99004
G1 X123.344 Y102.804 E62.02035
G1 X121.485 Y100.946 E62.10588
G1 X122.417 Y100.946 E62.13620
G1 X124.275 Y102.804 E62.22173
G1 X125.207 Y102.804 E62.25205
G1 X123.348 Y100.946 E62.33758
G1 X124.280 Y100.946 E62.36789
G1 X126.139 Y102.804 E62.45343
G1 X127.071 Y102.804 E62.48374
G1 X125.212 Y100.946 E62.56928
G1 X126.143 Y100.946 E62.59959
G1 X128.002 Y102.804 E62.68512
G1 X128.934 Y102.804 E62.71544
G1 X127.075 Y100.946 E62.80097
G1 X128.007 Y100.946 E62.83129
G1 X129.866 Y102.804 E62.91682
G1 X130.798 Y102.804 E62.94713
G1 X128.939 Y100.946 E63.03267
G1 X129.870 Y100.946 E63.06298
G1 X131.729 Y102.804 E63.14851
G1 X132.661 Y102.804 E63.17883
G1 X130.802 Y100.946 E63.26436
G1 X131.734 Y100.946 E63.29468
G1 X133.593 Y102.804 E63.38021
G1 X134.525 Y102.804 E63.41052
G1 X132.666 Y100.946 E63.49606
G1 X133.597 Y100.946 E63.52637
G1 X135.456 Y102.804 E63.61191
G1 X136.388 Y102.804 E63.64222
G1 X134.529 Y100.946 E63.72775
G1 X135.461 Y100.946 E63.75807
G1 X137.320 Y102.804 E63.84360
G1 X138.252 Y102.804 E63.87392
G1 X136.393 Y100.946 E63.95945
G1 X137.324 Y100.946 E63.98976
G1 X139.183 Y102.804 E64.07530
G1 X140.115 Y102.804 E64.10561
G1 X138.256 Y100.946 E64.19114
G1 X139.188 Y100.946 E64.22146
G1 X141.047 Y102.804 E64.30699
G1 X141.978 Y102.804 E64.33731
G1 X140.120 Y100.946 E64.42284
G1 X141.051 Y100.946 E64.45315
G1 X142.910 Y102.804 E64.53869
G1 X143.842 Y102.804 E64.56900
G1 X141.983 Y100.946 E64.65454
G1 X142.915 Y100.946 E64.68485
G1 X144.774 Y102.804 E64.77038
G1 X145.705 Y102.804 E64.80070
G1 X143.846 Y100.946 E64.88623
G1 X144.778 Y100.946 E64.91655
G1 X146.637 Y102.804 E65.00208
G1 X147.569 Y102.804 E65.03239
G1 X145.710 Y100.946 E65.11793
G1 X146.642 Y100.946 E65.14824
G1 X148.501 Y102.804 E65.23377
G1 X149.432 Y102.804 E65.26409
G1 X147.573 Y100.946 E65.34962
G1 X148.505 Y100.946 E65.37994
G1 X150.364 Y102.804 E65.46547
G1 X151.296 Y102.804 E65.49578
G1 X149.437 Y100.946 E65.58132
G1 X150.369 Y100.946 E65.61163
G1 X152.228 Y102.804 E65.69717
G1 X153.159 Y102.804 E65.72748
G1 X151.300 Y100.946 E65.81301
G1 X152.232 Y100.946 E65.84333
G1 X154.091 Y102.804 E65.92886
G1 X155.023 Y102.804 E65.95918
G1 X153.164 Y100.946 E66.04471
G1 X154.096 Y100.946 E66.07502
G1 X155.955 Y102.804 E66.16056
G1 X156.886 Y102.804 E66.19087
G1 X155.027 Y100.946 E66.27640
G1 X155.959 Y100.946 E66.30672
G1 X157.818 Y102.804 E66.39225
G1 X158.750 Y102.804 E66.42257
G1 X156.891 Y100.946 E66.50810
G1 X157.823 Y100.946 E66.53841
G1 X159.681 Y102.804 E66.62395
G1 X160.613 Y102.804 E66.65426
G1 X158.754 Y100.946 E66.73980
G1 X159.686 Y100.946 E66.77011
G1 X161.545 Y102.804 E66.85564
G1 X162.477 Y102.804 E66.88596
G1 X160.618 Y100.946 E66.97149
G1 X161.549 Y100.946 E67.00181
G1 X163.408 Y102.804 E67.08734
G1 X164.340 Y102.804 E67.11765
G1 X162.481 Y100.946 E67.20319
G1 X163.413 Y100.946 E67.23350
G1 X165.272 Y102.804 E67.31903
G1 X166.204 Y102.804 E67.34935
G1 X164.345 Y100.946 E67.43488
G1 X165.276 Y100.946 E67.46520
G1 X167.135 Y102.804 E67.55073
G1 X168.067 Y102.804 E67.58104
G1 X166.208 Y100.946 E67.66658
G1 X167.140 Y100.946 E67.69689
G1 X168.999 Y102.804 E67.78243
G1 X169.931 Y102.804 E67.81274
G1 X168.072 Y100.946 E67.89827
G1 X169.003 Y100.946 E67.92859
G1 X170.862 Y102.804 E68.01412
G1 X171.794 Y102.804 E68.04444
G1 X169.935 Y100.946 E68.12997
G1 X170.867 Y100.946 E68.16028
G1 X172.726 Y102.804 E68.24582
G1 X173.658 Y102.804 E68.27613
G1 X171.799 Y100.946 E68.36166
G1 X172.730 Y100.946 E68.39198
G1 X174.589 Y102.804 E68.47751
G1 X175.521 Y102.804 E68.50783
G1 X173.662 Y100.946 E68.59336
G1 X174.594 Y100.946 E68.62367
G1 X176.453 Y102.804 E68.70921
G1 X177.384 Y102.804 E68.73952
G1 X175.526 Y100.946 E68.82506
G1 X176.457 Y100.946 E68.85537
G1 X178.316 Y102.804 E68.94090
G1 X179.248 Y102.804 E68.97122
G1 X177.389 Y100.946 E69.05675
G1 X178.321 Y100.946 E69.08707
G1 X180.180 Y102.804 E69.17260
G1 X181.111 Y102.804 E69.20291
G1 X179.252 Y100.946 E69.28845
G1 X180.184 Y100.946 E69.31876
G1 X182.043 Y102.804 E69.40429
G1 X182.975 Y102.804 E69.43461
G1 X181.116 Y100.946 E69.52014
G1 X182.048 Y100.946 E69.55046
G1 X183.907 Y102.804 E69.63599
G1 X184.838 Y102.804 E69.66630
G1 X182.979 Y100.946 E69.75184
G1 X183.911 Y100.946 E69.78215
G1 X185.770 Y102.804 E69.86769
G1 X186.702 Y102.804 E69.89800
G1 X184.843 Y100.946 E69.98353
G1 X185.775 Y100.946 E70.01385
G1 X187.634 Y102.804 E70.09938
G1 X188.565 Y102.804 E70.12970
G1 X186.706 Y100.946 E70.21523
G1 X187.638 Y100.946 E70.24554
G1 X189.497 Y102.804 E70.33108
G1 X190.429 Y102.804 E70.36139
G1 X188.570 Y100.946 E70.44692
G1 X189.502 Y100.946 E70.47724
G1 X191.361 Y102.804 E70.56277
G1 X192.292 Y102.804 E70.59309
G1 X190.433 Y100.946 E70.67862
G1 X191.365 Y100.946 E70.70893
G1 X193.224 Y102.804 E70.79447
G1 X194.156 Y102.804 E70.82478
G1 X192.297 Y100.946 E70.91032
G1 X193.229 Y100.946 E70.94063
G1 X195.087 Y102.804 E71.02616
G1 X196.019 Y102.804 E71.05648
G1 X194.160 Y100.946 E71.14201
G1 X195.092 Y100.946 E71.17233
G1 X196.951 Y102.804 E71.25786
G1 X197.883 Y102.804 E71.28817
G1 X196.024 Y100.946 E71.37371
G1 X196.955 Y100.946 E71.40402
G1 X198.814 Y102.804 E71.48955
G1 X199.746 Y102.804 E71.51987
G1 X197.887 Y100.946 E71.60540
G1 X198.819 Y100.946 E71.63572
G1 X200.678 Y102.804 E71.72125
G1 X201.610 Y102.804 E71.75156
G1 X199.751 Y100.946 E71.83710
G1 X200.682 Y100.946 E71.86741
G1 X202.541 Y102.804 E71.95295
G1 X203.473 Y102.804 E71.98326
